app/images/icons/provide/box-3-line.svg

<svg xmlns="http://www.w3.org/2000/svg" viewBox="0 0 24 24"><path d="M12 1L21.5 6.5V17.5L12 23L2.5 17.5V6.5L12 1ZM5.49388 7.0777L12.0001 10.8444L18.5062 7.07774L12 3.311L5.49388 7.0777ZM4.5 8.81329V16.3469L11.0001 20.1101V12.5765L4.5 8.81329ZM13.0001 20.11L19.5 16.3469V8.81337L13.0001 12.5765V20.11Z" fill="rgba(25,24,27,1)"></path></svg>

<svg xmlns="http://www.w3.org/2000/svg" viewBox="0 0 24 24"><path d="M12 1l9.5 5.5v11L12 23l-9.5-5.5v-11L12 1zM5.494 7.078L12 10.844l6.506-3.766L12 3.31 5.494 7.078zM4.5 8.813v7.534L11 20.11v-7.534L4.5 8.813zM13 20.11l6.5-3.763V8.813L13 12.576v7.534z" fill="rgba(25,24,27,1)"/></svg>
